X: 239
T: Scottish Set
M: C|
C: R-128
K: D
P: 1st
%%text Repeat each part 4 times
   "D"defg f4| "Em"efgf e4| "A"a2e2 a2e2|1 "D"fgfe f2d2 :|2 "D"fgfe d4 |]
|: "D"a2a2 "G"b2b2| "A (D)"agfg "A"e4| a2e2 a2e2|1 "D"fgfe f2d2 :|2 "D"fgfe d4 |]
P: 2nd
%%text Repeat each part 4 times
   "D"defe defe| d2f2 a2f2| "A"edcd e2e2|1 fgfe "D"f2d2 :|2 "D"fgfe d4|]
|: "D"f2f2 a2gf| "A"e2e2 "D"a2f2| "A"edcd e2e2|1 fgfe "D"f2d2 :|2 "D"fgfe d4|]
P: 3rd
%%text Repeat each part 4 times
   "D"ABdf A2A2| ABdf "G"B2B2| "A"ABcd e2e2|1 dcde "D"f2f2 :|2 "A"dedc "D"d4 |]
|: "D"fafe d2d2| cdef f4| fafe d2d2 "A"cdec "D"d4 :|
%%text 12/26/05.  Formerly W-33
